X: 33618
T: Rakish Paddy
R: reel
M: 4/4
K: Dmixolydian
AB|:c3 B c2 AB|cBAG EG ~G2|Add^c defe|d^cAG FGAB|
c3 B c2 AB|cBAG EFGE|DEFG ABcA|1 d^cAG FDAB:|2 d^cAG FD~D2||
|:eg ~g2 ag ~g2|eg ~g2 ed^cd|ea~a2 ba ~a2|eaag ed^cd|
eg ~g2 ag ~g2|f2 fe defg|afge defe|d^cAG FD D2:|

